UI/POI/SVG/exhibition-center_outline_24px.svg

<svg width="24" height="24" viewBox="0 0 24 24" fill="none" xmlns="http://www.w3.org/2000/svg">
<path d="M12 2C4 2 2 10 2 10H4C4.38631 9.03735 4.89735 8.1296 5.52 7.3L5.79 7C5.88164 6.87642 5.98189 6.75946 6.09 6.65C6.3965 6.30623 6.73098 5.98848 7.09 5.7C7.23386 5.57876 7.38407 5.46527 7.54 5.36V5.36C8.8498 4.45542 10.4083 3.98017 12 4C13.575 3.96873 15.1216 4.42257 16.43 5.3V5.3C16.5859 5.40527 16.7361 5.51876 16.88 5.64C17.239 5.92848 17.5735 6.24623 17.88 6.59C17.9881 6.69946 18.0884 6.81642 18.18 6.94L18.45 7.29C18.5467 7.41523 18.6368 7.5454 18.72 7.68C19.2356 8.4008 19.6652 9.17942 20 10H22C22 10 20 2 12 2ZM2 12V22H8V19H16V22H22V12H2ZM6 17H4V14H6V17ZM11 17H8V14H11V17ZM16 17H13V14H16V17ZM20 17H18V14H20V17Z" fill="#0F1621"/>
</svg>

<svg xmlns="http://www.w3.org/2000/svg" width="24" height="24" viewBox="0 0 24 24"><rect width="24" height="24" style="fill:none"/><path d="M12,2C4,2,2,10,2,10H4A11.85,11.85,0,0,1,5.52,7.3L5.79,7a3.27,3.27,0,0,1,.3-.35,8.33,8.33,0,0,1,1-.95,5.3,5.3,0,0,1,.45-.34h0A7.68,7.68,0,0,1,12,4a7.68,7.68,0,0,1,4.43,1.3h0a5.3,5.3,0,0,1,.45.34,8.33,8.33,0,0,1,1,.95,3.27,3.27,0,0,1,.3.35l.27.35a4.56,4.56,0,0,1,.27.39A11.37,11.37,0,0,1,20,10h2S20,2,12,2ZM2,12V22H8V19h8v3h6V12Zm4,5H4V14H6Zm5,0H8V14h3Zm5,0H13V14h3Zm4,0H18V14h2Z"/></svg>
